front/src/Assets/image/sidebar/Question.svg

<svg width="24" height="24" viewBox="0 0 24 24" fill="none" xmlns="http://www.w3.org/2000/svg">
<circle cx="12" cy="12" r="9" stroke="#666666"/>
<circle cx="12" cy="18" r="0.5" fill="#666666"/>
<path d="M12 16V15.1432C12 14.429 12.357 13.762 12.9512 13.3659L13.5497 12.9669C14.4558 12.3628 15 11.3459 15 10.2569V10C15 8.34315 13.6569 7 12 7V7C10.3431 7 9 8.34315 9 10V10" stroke="#666666"/>
</svg>

<svg xmlns="http://www.w3.org/2000/svg" fill="none" viewBox="0 0 24 24">
  <circle cx="12" cy="12" r="9" stroke="#666"/>
  <circle cx="12" cy="18" r=".5" fill="#666"/>
  <path stroke="#666" d="M12 16v-.857c0-.714.357-1.381.951-1.777l.599-.4a3.257 3.257 0 001.45-2.71V10a3 3 0 00-3-3v0a3 3 0 00-3 3v0"/>
</svg>
